assets/images/order-svg2.svg

<svg width="70" height="70" viewBox="0 0 70 70" fill="none" xmlns="http://www.w3.org/2000/svg">
<circle cx="35" cy="35" r="35" fill="#323750"/>
<path d="M24.0808 30.7429C26.4264 29.6367 28.9964 29.089 31.5892 29.1429C34.182 29.0886 36.7517 29.6369 39.0976 30.7429C40.1534 30.0562 40.7499 29.2501 40.7499 28.4643C40.7499 26.4964 37.0686 24.3929 31.5892 24.3929C26.1097 24.3929 22.4285 26.4964 22.4285 28.4643C22.4285 29.2501 23.0249 30.0562 24.0808 30.7429ZM54.3213 38.6428H48.2142V40.0346C49.5598 40.0068 50.9285 41.3415 50.9285 43.7321C50.9596 44.8563 50.5522 45.9484 49.7925 46.7776C49.3728 47.1999 48.8091 47.4483 48.2142 47.4731V48.8214H54.3213C54.5013 48.8214 54.6739 48.7499 54.8011 48.6227C54.9284 48.4954 54.9999 48.3228 54.9999 48.1428V39.3214C54.9999 39.1415 54.9284 38.9689 54.8011 38.8416C54.6739 38.7143 54.5013 38.6428 54.3213 38.6428ZM53.6427 44.75C53.6427 44.93 53.5713 45.1026 53.444 45.2298C53.3167 45.3571 53.1441 45.4286 52.9642 45.4286C52.7842 45.4286 52.6116 45.3571 52.4844 45.2298C52.3571 45.1026 52.2856 44.93 52.2856 44.75V42.7143C52.2856 42.5343 52.3571 42.3617 52.4844 42.2345C52.6116 42.1072 52.7842 42.0357 52.9642 42.0357C53.1441 42.0357 53.3167 42.1072 53.444 42.2345C53.5713 42.3617 53.6427 42.5343 53.6427 42.7143V44.75Z" fill="white"/>
<path d="M31.5893 37.2857C39.6337 37.2857 46.1786 33.633 46.1786 29.1429C46.1786 24.6527 39.6337 21 31.5893 21C23.5448 21 17 24.6527 17 29.1429C17 33.633 23.5448 37.2857 31.5893 37.2857ZM31.5893 23.0357C37.4867 23.0357 42.1071 25.4202 42.1071 28.4643C42.1071 29.8533 41.1375 31.1019 39.5286 32.0526C39.48 32.0895 39.4266 32.1197 39.3698 32.1421C36.9624 33.3642 34.2881 33.966 31.5893 33.8929C28.8621 33.9702 26.1607 33.3541 23.7362 32.1028C23.7006 32.0864 23.6665 32.0669 23.6344 32.0444C22.0357 31.0951 21.0714 29.8492 21.0714 28.4643C21.0714 25.4202 25.6918 23.0357 31.5893 23.0357Z" fill="white"/>
<path d="M48.8386 45.8126C49.3375 45.237 49.5994 44.4934 49.5714 43.7321C49.5714 42.282 48.8671 41.3714 48.2143 41.3571C47.859 41.3604 47.5168 41.2229 47.2625 40.9748C47.0082 40.7266 46.8625 40.3879 46.8571 40.0326V38.6429H31.5893C25.0825 38.6429 19.4768 36.3079 17 32.9714V40.6786C17 42.4171 18.0179 44.0341 19.7143 45.3655V42.7143C19.7143 42.5343 19.7858 42.3617 19.913 42.2345C20.0403 42.1072 20.2129 42.0357 20.3929 42.0357C20.5728 42.0357 20.7454 42.1072 20.8727 42.2345C20.9999 42.3617 21.0714 42.5343 21.0714 42.7143V46.2876C21.7252 46.6658 22.4056 46.996 23.1071 47.2756V46.1071C23.1071 45.9272 23.1786 45.7546 23.3059 45.6273C23.4331 45.5001 23.6057 45.4286 23.7857 45.4286C23.9657 45.4286 24.1383 45.5001 24.2655 45.6273C24.3928 45.7546 24.4643 45.9272 24.4643 46.1071V47.7676C25.1123 47.9712 25.797 48.1422 26.5 48.2908V45.4286C26.5 45.2486 26.5715 45.076 26.6987 44.9487C26.826 44.8215 26.9986 44.75 27.1786 44.75C27.3585 44.75 27.5311 44.8215 27.6584 44.9487C27.7856 45.076 27.8571 45.2486 27.8571 45.4286V48.5344C28.7569 48.6681 29.6621 48.7515 30.5714 48.7868V47.4643C30.5714 47.2843 30.6429 47.1117 30.7702 46.9845C30.8974 46.8572 31.07 46.7857 31.25 46.7857C31.43 46.7857 31.6026 46.8572 31.7298 46.9845C31.8571 47.1117 31.9286 47.2843 31.9286 47.4643V48.8153H34.6429V46.1071C34.6429 45.9272 34.7143 45.7546 34.8416 45.6273C34.9689 45.5001 35.1415 45.4286 35.3214 45.4286C35.5014 45.4286 35.674 45.5001 35.8012 45.6273C35.9285 45.7546 36 45.9272 36 46.1071V48.816H38.7143V47.4643C38.7143 47.2843 38.7858 47.1117 38.913 46.9845C39.0403 46.8572 39.2129 46.7857 39.3929 46.7857C39.5728 46.7857 39.7454 46.8572 39.8727 46.9845C39.9999 47.1117 40.0714 47.2843 40.0714 47.4643V48.8174H42.7857V46.1071C42.7857 45.9272 42.8572 45.7546 42.9845 45.6273C43.1117 45.5001 43.2843 45.4286 43.4643 45.4286C43.6442 45.4286 43.8168 45.5001 43.9441 45.6273C44.0714 45.7546 44.1429 45.9272 44.1429 46.1071V48.8214H46.8571V47.4052C46.8565 47.2378 46.8894 47.0719 46.9537 46.9173C47.018 46.7626 47.1125 46.6224 47.2317 46.5048C47.4991 46.2571 47.8492 46.118 48.2143 46.116C48.4552 46.1051 48.6811 45.9959 48.8386 45.8126ZM46.1786 37.2857V32.9714C44.5113 34.9958 42.2936 36.4943 39.7932 37.2857H46.1786Z" fill="white"/>
</svg>

<svg width="70" height="70" fill="none" xmlns="http://www.w3.org/2000/svg"><circle cx="35" cy="35" r="35" fill="#323750"/><path d="M24.08 30.743a16.785 16.785 0 0 1 7.51-1.6 16.783 16.783 0 0 1 7.508 1.6c1.055-.687 1.652-1.493 1.652-2.279 0-1.968-3.681-4.071-9.16-4.071-5.48 0-9.162 2.103-9.162 4.071 0 .786.597 1.592 1.653 2.279Zm30.241 7.9h-6.107v1.392c1.346-.028 2.715 1.307 2.715 3.697a4.33 4.33 0 0 1-1.137 3.046c-.42.422-.983.67-1.578.695v1.348h6.107a.679.679 0 0 0 .679-.678V39.32a.679.679 0 0 0-.679-.678Zm-.678 6.107a.678.678 0 1 1-1.357 0v-2.036a.678.678 0 1 1 1.357 0v2.036Z" fill="#fff"/><path d="M31.59 37.286c8.044 0 14.589-3.653 14.589-8.143S39.634 21 31.589 21C23.545 21 17 24.653 17 29.143s6.545 8.143 14.59 8.143Zm0-14.25c5.897 0 10.517 2.384 10.517 5.428 0 1.39-.97 2.638-2.578 3.589a.668.668 0 0 1-.16.09 16.218 16.218 0 0 1-7.78 1.75 16.126 16.126 0 0 1-7.853-1.79.654.654 0 0 1-.102-.059c-1.598-.949-2.563-2.195-2.563-3.58 0-3.044 4.62-5.428 10.518-5.428Z" fill="#fff"/><path d="M48.839 45.813c.498-.576.76-1.32.732-2.08 0-1.451-.704-2.362-1.357-2.376a1.345 1.345 0 0 1-1.357-1.324v-1.39H31.59c-6.506 0-12.112-2.335-14.589-5.672v7.708c0 1.738 1.018 3.355 2.714 4.686v-2.65a.679.679 0 1 1 1.357 0v3.573c.654.378 1.335.708 2.036.988v-1.169a.679.679 0 0 1 1.357 0v1.66a22 22 0 0 0 2.036.524v-2.862a.679.679 0 0 1 1.357 0v3.105c.9.134 1.805.218 2.714.253v-1.323a.678.678 0 1 1 1.358 0v1.351h2.714v-2.708a.678.678 0 1 1 1.357 0v2.709h2.714v-1.352a.679.679 0 1 1 1.357 0v1.353h2.715v-2.71a.679.679 0 0 1 1.357 0v2.714h2.714v-1.416a1.259 1.259 0 0 1 .375-.9c.267-.248.617-.387.982-.389.241-.01.467-.12.625-.303Zm-2.66-8.527V32.97a13.582 13.582 0 0 1-6.386 4.315h6.386Z" fill="#fff"/></svg>
